src/assets/svg/xIcon.svg

<svg width="21" height="21" fill="none" xmlns="http://www.w3.org/2000/svg">
  <path d="M12.5 8.89 20.31 0h-1.85l-6.79 7.72L6.25 0H0l8.19 11.67L0 21h1.85l7.17-8.16L14.74 21H21L12.5 8.89Zm-2.54 2.88-.83-1.16-6.61-9.25h2.84l5.34 7.47.83 1.16 6.93 9.71h-2.85l-5.65-7.93Z" fill="#FCFCFC" fill-rule="evenodd"/>
</svg>

<svg width="21.000000" height="21.000000" viewBox="0 0 21 21" fill="none" xmlns="http://www.w3.org/2000/svg" xmlns:xlink="http://www.w3.org/1999/xlink">
	<desc>
			Created with Pixso.
	</desc>
	<defs/>
	<path id="Vector" d="M12.5 8.89L20.31 0L18.46 0L11.67 7.72L6.25 0L0 0L8.19 11.67L0 21L1.85 21L9.02 12.84L14.74 21L21 21L12.5 8.89ZM9.96 11.77L9.13 10.61L2.52 1.36L5.36 1.36L10.7 8.83L11.53 9.99L18.46 19.7L15.61 19.7L9.96 11.77Z" fill="#FCFCFC" fill-opacity="1.000000" fill-rule="evenodd"/>
</svg>
